src/assets/icons/svg/video.svg

<svg width="24" height="18" viewBox="0 0 24 18" fill="none" xmlns="http://www.w3.org/2000/svg">
<path d="M13.3125 17.2969H3.75C1.68219 17.2969 0 15.6147 0 13.5469V4.45312C0 2.38531 1.68219 0.703125 3.75 0.703125H13.3125C15.3803 0.703125 17.0625 2.38531 17.0625 4.45312V5.24176L22.6478 2.4873C22.9384 2.34412 23.2824 2.36096 23.5576 2.53198C23.8326 2.703 24 3.00421 24 3.32812V8.10938C24 8.6272 23.5803 9.04688 23.0625 9.04688C22.5447 9.04688 22.125 8.6272 22.125 8.10938V4.83582L16.6335 7.54395C16.5044 7.60748 16.3625 7.64062 16.2188 7.64062H16.125C15.6072 7.64062 15.1875 7.22095 15.1875 6.70312V4.45312C15.1875 3.41931 14.3463 2.57812 13.3125 2.57812H3.75C2.71619 2.57812 1.875 3.41931 1.875 4.45312V13.5469C1.875 14.5807 2.71619 15.4219 3.75 15.4219H13.3125C14.3463 15.4219 15.1875 14.5807 15.1875 13.5469V11.2969C15.1875 10.7791 15.6072 10.3594 16.125 10.3594H16.1724C16.3173 10.3594 16.4599 10.3929 16.5895 10.4572L22.125 13.2063V12.7969C22.125 12.2791 22.5447 11.8594 23.0625 11.8594C23.5803 11.8594 24 12.2791 24 12.7969V14.7188C24 15.0432 23.8323 15.3446 23.5563 15.5156C23.2806 15.6865 22.9362 15.7028 22.6454 15.5585L17.0625 12.7857V13.5469C17.0625 15.6147 15.3803 17.2969 13.3125 17.2969Z" fill="black"/>
</svg>

<?xml version="1.0" encoding="iso-8859-1"?>
<!-- Generator: Adobe Illustrator 23.1.0, SVG Export Plug-In . SVG Version: 6.00 Build 0)  -->
<svg version="1.1" id="&#x421;&#x43B;&#x43E;&#x439;_1"
	 xmlns="http://www.w3.org/2000/svg" xmlns:xlink="http://www.w3.org/1999/xlink" x="0px" y="0px" viewBox="0 0 24 18"
	 style="enable-background:new 0 0 24 18;" xml:space="preserve">
<path d="M13.313,17.297H3.75c-2.068,0-3.75-1.682-3.75-3.75V4.453c0-2.068,1.682-3.75,3.75-3.75h9.563c2.068,0,3.75,1.682,3.75,3.75
	v0.789l5.585-2.754c0.291-0.143,0.635-0.126,0.91,0.045C23.833,2.703,24,3.004,24,3.328v4.781c0,0.518-0.42,0.938-0.938,0.938
	s-0.938-0.42-0.938-0.938V4.836l-5.492,2.708c-0.129,0.064-0.271,0.097-0.415,0.097h-0.094c-0.518,0-0.938-0.42-0.938-0.938v-2.25
	c0-1.034-0.841-1.875-1.875-1.875H3.75c-1.034,0-1.875,0.841-1.875,1.875v9.094c0,1.034,0.841,1.875,1.875,1.875h9.563
	c1.034,0,1.875-0.841,1.875-1.875v-2.25c0-0.518,0.42-0.938,0.938-0.938h0.047c0.145,0,0.288,0.034,0.417,0.098l5.535,2.749v-0.409
	c0-0.518,0.42-0.938,0.938-0.938S24,12.279,24,12.797v1.922c0,0.324-0.168,0.626-0.444,0.797c-0.276,0.171-0.62,0.187-0.911,0.043
	l-5.583-2.773v0.761C17.063,15.615,15.38,17.297,13.313,17.297z"/>
</svg>
